X:66
T: Gute Meinung
N: D0068
O: Europa, Mitteleuropa, Lothringen, Hambach
N: Verzierungen; Inzipit = Variante zum Lied
R: geistliches Lied
M: 4/4
L: 1/8
K: Eb
EFGAB2B2 | cdeccBB2 |
BAcBB2EF | GAGFFEE2 |
G3BBAA2 | GEBGGFF2 |
G3BBAA2 | GEBGGFF2 |
EFGAB2B2 | cdecB4 |
BAcBB2EF | GAGFE2z2 |
EFGAB2B2 | cdecB4 |
BAcBB2EF | GAGFE2z2

@@@ Tune index: 2588
